dist/img/icon-comments.svg

<svg width="20" height="20" viewBox="0 0 20 20" fill="none" xmlns="http://www.w3.org/2000/svg"><path d="M5 2h9c1.1 0 2 .9 2 2v7c0 1.1-.9 2-2 2h-2l-5 5v-5H5c-1.1 0-2-.9-2-2V4c0-1.1.9-2 2-2z" fill="#A9BBBE"/></svg>

<svg width="20" height="20" viewBox="0 0 20 20" fill="none" xmlns="http://www.w3.org/2000/svg">
<path d="M5 2H14C15.1 2 16 2.9 16 4V11C16 12.1 15.1 13 14 13H12L7 18V13H5C3.9 13 3 12.1 3 11V4C3 2.9 3.9 2 5 2Z" fill="#A9BBBE"/>
</svg>
